X:0786
T:Lira Lira La.
M:C|
L:1/8
Q:1/2=88 "Moderato"
I: ||
Z:Jack Campin * www.campin.me.uk * 2009
K:D
A2d2  d3  d|(cd)(ec) d4|(ef)(ge) (dc)(BA)| A2  d>e  d2z2 |
A2d2  d3  d|(cd)(ec) d4|(ef)(ge) (dc)(BA)| A2 (d>e) d2z2 |
f3 f (fe)e2|(ed)(cd) A4| f2  f2  (fe) e2 |(ed)(cd) HA4   |
ABcA  d4   | cd``ec  d4|(ef)(ge) (dc)(BA)| A2 (de)  d2z2|]
<end>
<start>
